website/public/Images/logos/github_full.svg

<svg width="128" height="44" viewBox="0 0 128 44" fill="none" xmlns="http://www.w3.org/2000/svg">
<g clip-path="url(#clip0)">
<path d="M22.3721 1.89079e-06C10.0115 -0.00504745 0 10.1037 0 22.5807C0 32.4471 6.2628 40.8341 14.9847 43.9142C16.1593 44.2121 15.9794 43.3688 15.9794 42.7932V38.88C9.19677 39.6828 8.92187 35.1485 8.46702 34.3911C7.54735 32.8056 5.37311 32.4017 6.02288 31.6442C7.56734 30.8414 9.14179 31.8462 10.9661 34.5678C12.2857 36.5421 14.8598 36.2089 16.1643 35.8807C16.4492 34.6941 17.059 33.6337 17.8987 32.8106C10.8712 31.5382 7.94221 27.2059 7.94221 22.0555C7.94221 19.5561 8.75692 17.2587 10.3564 15.4056C9.33672 12.3507 10.4513 9.73514 10.6013 9.34634C13.5053 9.08377 16.5242 11.4469 16.7591 11.6337C18.4085 11.1843 20.2929 10.947 22.4021 10.947C24.5214 10.947 26.4107 11.1944 28.0751 11.6488C28.6399 11.2146 31.439 9.18476 34.138 9.43218C34.283 9.82098 35.3726 12.3759 34.4129 15.3904C36.0323 17.2486 36.8571 19.5662 36.8571 22.0707C36.8571 27.2311 33.9081 31.5685 26.8606 32.8207C27.4642 33.4205 27.9435 34.1357 28.2705 34.9246C28.5974 35.7135 28.7655 36.5604 28.7649 37.4156V43.0962C28.8049 43.5506 28.7649 44 29.5146 44C38.3665 40.9855 44.7393 32.538 44.7393 22.5857C44.7393 10.1037 34.7228 1.89079e-06 22.3721 1.89079e-06Z" fill="black"/>
<path d="M66.9178 20.5038H60.554C60.3898 20.5038 60.2565 20.6386 60.2565 20.8044V23.9477C60.2565 24.1135 60.3898 24.2485 60.5538 24.2485H63.0366V28.1538C63.0366 28.1538 62.4791 28.3458 60.9379 28.3458C59.1197 28.3458 56.5796 27.6745 56.5796 22.0321C56.5796 16.3886 59.2246 15.6461 61.7076 15.6461C63.8569 15.6461 64.783 16.0283 65.3721 16.2126C65.5573 16.2699 65.7286 16.0837 65.7286 15.9177L66.4384 12.8806C66.4384 12.803 66.4124 12.7095 66.3247 12.6461C66.0855 12.4736 64.6258 11.6484 60.9378 11.6484C56.6896 11.6484 52.3315 13.4744 52.3315 22.2522C52.3315 31.0303 57.3209 32.3384 61.5256 32.3384C65.0068 32.3384 67.1185 30.8355 67.1185 30.8355C67.2057 30.787 67.215 30.6641 67.215 30.6077V20.8044C67.215 20.6387 67.082 20.5038 66.918 20.5038H66.9178ZM99.6977 12.7471C99.6977 12.5799 99.5664 12.445 99.4022 12.445H95.8189C95.7798 12.4451 95.7411 12.4531 95.705 12.4683C95.6689 12.4836 95.6361 12.5059 95.6086 12.534C95.581 12.562 95.5592 12.5953 95.5444 12.6319C95.5295 12.6684 95.522 12.7076 95.5221 12.7471L95.523 19.7428H89.9377V12.7473C89.9377 12.5801 89.8059 12.4451 89.642 12.4451H86.0587C85.9798 12.4455 85.9043 12.4776 85.8488 12.5343C85.7933 12.5909 85.7623 12.6676 85.7627 12.7473V31.6894C85.7627 31.8566 85.8957 31.9924 86.0587 31.9924H89.6419C89.8058 31.9924 89.9375 31.8566 89.9375 31.6894V23.5871H95.5229L95.5131 31.6892C95.5131 31.8564 95.6461 31.9923 95.8099 31.9923H99.4018C99.5658 31.9923 99.6971 31.8564 99.6974 31.6892V12.7473L99.6977 12.7471ZM73.668 15.2797C73.668 13.9763 72.6335 12.9229 71.3573 12.9229C70.0823 12.9229 69.047 13.9762 69.047 15.2797C69.047 16.5816 70.0823 17.6379 71.3573 17.6379C72.6335 17.6379 73.668 16.5816 73.668 15.2797ZM73.3836 27.7033V18.9597C73.3836 18.7937 73.2511 18.658 73.0872 18.658H69.5152C69.3513 18.658 69.2049 18.8288 69.2049 18.9948V31.5218C69.2049 31.89 69.4319 31.9995 69.7258 31.9995H72.944C73.2972 31.9995 73.3836 31.8243 73.3836 31.5159V27.7033ZM113.393 18.6581H109.837C109.674 18.6581 109.541 18.7938 109.541 18.9609V28.2489C109.541 28.2489 108.638 28.9165 107.356 28.9165C106.073 28.9165 105.733 28.3287 105.733 27.0606V18.961C105.733 18.7938 105.601 18.658 105.438 18.658H101.829C101.666 18.658 101.532 18.7938 101.532 18.961V27.6739C101.532 31.4408 103.611 32.3624 106.47 32.3624C108.815 32.3624 110.706 31.0535 110.706 31.0535C110.706 31.0535 110.796 31.7433 110.837 31.8251C110.878 31.9067 110.984 31.989 111.098 31.989L113.394 31.9789C113.557 31.9789 113.691 31.8428 113.691 31.6765L113.69 18.9609C113.69 18.7938 113.557 18.6581 113.393 18.6581ZM121.585 28.9237C120.352 28.8858 119.516 28.3204 119.516 28.3204V22.3216C119.516 22.3216 120.341 21.8106 121.353 21.7192C122.634 21.6034 123.868 21.9941 123.868 25.08C123.868 28.334 123.311 28.9761 121.585 28.9236V28.9237ZM122.988 18.2513C120.968 18.2513 119.595 19.1615 119.595 19.1615V12.7471C119.595 12.7077 119.588 12.6686 119.573 12.632C119.558 12.5954 119.536 12.5622 119.509 12.5341C119.482 12.506 119.449 12.4837 119.413 12.4684C119.377 12.4531 119.338 12.4452 119.299 12.445H115.706C115.667 12.4451 115.628 12.4531 115.592 12.4684C115.556 12.4837 115.523 12.506 115.496 12.534C115.468 12.5621 115.446 12.5954 115.432 12.6319C115.417 12.6685 115.409 12.7076 115.41 12.7471V31.6892C115.41 31.8564 115.542 31.9923 115.706 31.9923H118.199C118.312 31.9923 118.397 31.9341 118.459 31.8315C118.521 31.7297 118.611 30.9581 118.611 30.9581C118.611 30.9581 120.08 32.3648 122.862 32.3648C126.127 32.3648 128 30.6914 128 24.8527C128 19.014 125.009 18.2511 122.988 18.2511V18.2513ZM83.6969 18.6253H81.009L81.0049 15.038C81.0049 14.9023 80.9357 14.8344 80.7802 14.8344H77.1174C76.9749 14.8344 76.8985 14.8977 76.8985 15.0359V18.7431C76.8985 18.7431 75.063 19.1907 74.9388 19.2268C74.8769 19.2449 74.8225 19.2829 74.7838 19.335C74.7451 19.3871 74.7242 19.4504 74.7242 19.5155V21.8451C74.7242 22.0126 74.8567 22.1477 75.0206 22.1477H76.8985V27.7519C76.8985 31.9144 79.7887 32.3233 81.7391 32.3233C82.6303 32.3233 83.6963 32.0341 83.8723 31.9685C83.9787 31.929 84.0405 31.8178 84.0405 31.6968L84.0434 29.1342C84.0434 28.9672 83.9038 28.8319 83.7464 28.8319C83.5897 28.8319 83.1892 28.8962 82.7766 28.8962C81.4564 28.8962 81.009 28.276 81.009 27.4734L81.0089 22.1479H83.6969C83.736 22.1477 83.7748 22.1397 83.8109 22.1244C83.847 22.1091 83.8798 22.0868 83.9073 22.0586C83.9349 22.0305 83.9566 21.9972 83.9714 21.9605C83.9862 21.9239 83.9936 21.8846 83.9933 21.8451V18.9273C83.9933 18.7601 83.8608 18.6254 83.6969 18.6254V18.6253Z" fill="#11110F"/>
</g>
<defs>
<clipPath id="clip0">
<rect width="128" height="44" fill="white"/>
</clipPath>
</defs>
</svg>

<svg xmlns="http://www.w3.org/2000/svg" width="128" height="44" fill="none" xmlns:v="https://vecta.io/nano"><g clip-path="url(#A)"><path d="M22.372 0C10.012-.005 0 10.104 0 22.581c0 9.866 6.263 18.253 14.985 21.334 1.175.298.995-.545.995-1.121V38.88c-6.783.803-7.058-3.732-7.512-4.489-.92-1.586-3.094-1.989-2.444-2.747 1.544-.803 3.119.202 4.943 2.924 1.32 1.974 3.894 1.641 5.198 1.313.285-1.187.895-2.247 1.734-3.07-7.028-1.272-9.956-5.605-9.956-10.755 0-2.499.815-4.797 2.414-6.65-1.02-3.055.095-5.67.245-6.059 2.904-.263 5.923 2.101 6.158 2.287 1.649-.449 3.534-.687 5.643-.687 2.119 0 4.009.247 5.673.702.565-.434 3.364-2.464 6.063-2.217.145.389 1.235 2.944.275 5.958 1.619 1.858 2.444 4.176 2.444 6.68 0 5.16-2.949 9.498-9.997 10.75.604.6 1.083 1.315 1.41 2.104s.495 1.636.494 2.491v5.681c.04.454 0 .904.75.904 8.852-3.014 15.225-11.462 15.225-21.414C44.739 10.104 34.723 0 22.372 0z" fill="#000"/><path d="M66.918 20.504h-6.364a.3.3 0 0 0-.297.301v3.143a.3.3 0 0 0 .297.301h2.483v3.905s-.557.192-2.099.192c-1.818 0-4.358-.671-4.358-6.314s2.645-6.386 5.128-6.386c2.149 0 3.075.382 3.665.566.185.057.356-.129.356-.295l.71-3.037a.28.28 0 0 0-.114-.234c-.239-.173-1.699-.998-5.387-.998-4.248 0-8.606 1.826-8.606 10.604s4.989 10.086 9.194 10.086c3.481 0 5.593-1.503 5.593-1.503.087-.049.097-.171.097-.228v-9.803a.3.3 0 0 0-.297-.301h0zm32.78-7.757c0-.167-.131-.302-.296-.302h-3.583c-.039 0-.078.008-.114.023s-.069.038-.096.066a.3.3 0 0 0-.064.098c-.015.037-.022.076-.022.115l.001 6.996h-5.585v-6.995c0-.167-.132-.302-.296-.302h-3.583c-.079 0-.154.033-.21.089s-.087.133-.086.213v18.942a.3.3 0 0 0 .296.303h3.583c.164 0 .296-.136.296-.303v-8.102h5.585l-.01 8.102a.3.3 0 0 0 .297.303h3.592a.3.3 0 0 0 .296-.303V12.747h0zm-26.03 2.533c0-1.303-1.035-2.357-2.311-2.357s-2.31 1.053-2.31 2.357 1.035 2.358 2.31 2.358 2.311-1.056 2.311-2.358zm-.284 12.424V18.96a.3.3 0 0 0-.296-.302h-3.572c-.164 0-.31.171-.31.337v12.527c0 .368.227.478.521.478h3.218c.353 0 .44-.175.44-.484v-3.813zm40.009-9.045h-3.556a.3.3 0 0 0-.296.303v9.288s-.903.668-2.185.668-1.623-.588-1.623-1.856v-8.1a.3.3 0 0 0-.295-.303h-3.609a.3.3 0 0 0-.297.303v8.713c0 3.767 2.079 4.689 4.938 4.689 2.345 0 4.236-1.309 4.236-1.309s.09.69.131.772.147.164.261.164l2.296-.01a.3.3 0 0 0 .297-.302l-.001-12.716a.3.3 0 0 0-.297-.303zm8.192 10.266c-1.233-.038-2.069-.603-2.069-.603v-5.999s.825-.511 1.837-.602c1.281-.116 2.515.275 2.515 3.361 0 3.254-.557 3.896-2.283 3.844h0zm1.403-10.672c-2.02 0-3.393.91-3.393.91v-6.414c0-.039-.007-.079-.022-.115s-.037-.07-.064-.098a.29.29 0 0 0-.096-.066c-.036-.015-.075-.023-.114-.023h-3.593c-.039 0-.078.008-.114.023s-.069.038-.096.066-.05.061-.064.098-.023.076-.022.115v18.942a.3.3 0 0 0 .296.303h2.493c.113 0 .198-.058.26-.161s.152-.873.152-.873 1.469 1.407 4.251 1.407c3.265 0 5.138-1.673 5.138-7.512s-2.991-6.602-5.012-6.602h0zm-39.291.374h-2.688l-.004-3.587c0-.136-.069-.204-.225-.204h-3.663c-.142 0-.219.063-.219.201v3.707l-1.96.484c-.062.018-.116.056-.155.108s-.06.115-.06.18v2.33a.3.3 0 0 0 .296.303h1.878v5.604c0 4.163 2.89 4.571 4.841 4.571.891 0 1.957-.289 2.133-.355.106-.04.168-.151.168-.272l.003-2.563c0-.167-.14-.302-.297-.302s-.557.064-.97.064c-1.32 0-1.768-.62-1.768-1.423v-5.326h2.688c.039 0 .078-.008.114-.023s.069-.038.096-.066a.3.3 0 0 0 .064-.098c.015-.037.022-.076.022-.115v-2.918c0-.167-.133-.302-.296-.302h0z" fill="#11110f"/></g><defs><clipPath id="A"><path fill="#fff" d="M0 0h128v44H0z"/></clipPath></defs></svg>
